svgs/enpara.svg

<svg xmlns="http://www.w3.org/2000/svg" viewBox="0 0 192 192"><path d="M61.295 173.015c-15.861-4.199-26.218-10.604-32.642-20.188-7.137-10.647-11.467-24.825-12.295-40.257-.716-13.351.334-14.372 3.798-3.693 1.099 3.386 4.211 9.753 6.917 14.151 5.235 8.508 29.223 33.677 37.512 39.358 6.804 4.664 16.466 9.412 21.263 10.449 7.565 1.635 5.506 3.135-4.222 3.076-5.94-.037-13.708-1.143-20.331-2.896Zm48.179-.972c12.412-4.766 21.191-11.017 35.756-25.46 15.903-15.77 20.493-21.852 25.878-34.293l3.609-8.337.044 9.933c.024 5.517-.817 12.905-1.892 16.619-3.229 11.146-10.05 23.957-15.266 28.669-10.352 9.353-28.486 15.607-44.941 15.5l-9.873-.064Zm-56.113-52.33c-2.133-1.064-4.487-3.27-5.232-4.904-1.756-3.855-1.77-33.83-.017-37.678 2.358-5.175 7.261-7.032 18.551-7.027 16.417.007 20.713 4.28 20.731 20.615l.007 6.463H72.652c-14.716 0-14.751.007-15.524 3.086-.426 1.697-.414 5.005.026 7.352.68 3.626 1.509 4.478 5.529 5.683 7.432 2.226 12.073.065 14.126-6.58.47-1.519 1.947-2.154 5.013-2.154 3.995 0 4.348.295 4.348 3.635 0 9.503-6.139 13.644-20.047 13.521-5.459-.049-10.378-.824-12.762-2.012ZM76.1 86.296c.545-5.691-2.524-8.81-8.668-8.81-6.634 0-9.334 1.764-10.261 6.705-1.182 6.303-.177 6.983 9.714 6.58l8.821-.359Zm23.611 9.655V70.099h5.54c4.719 0 5.54.365 5.54 2.462 0 1.355.279 2.463.62 2.463.341 0 2.687-1.108 5.213-2.463 6.904-3.7 18.605-3.438 22.867.511 4.397 4.076 4.676 5.93 4.274 28.419l-.352 19.697h-11.079l-.299-17.85c-.164-9.818-.575-19.036-.913-20.484-.798-3.428-5.798-4.644-11.53-2.805-8.67 2.781-8.801 3.131-8.801 23.479v18.275h-11.08ZM16.486 79.332c.665-15.378 4.768-28.916 12.096-39.911 4.286-6.429 6.826-8.776 13.62-12.582 11.291-6.324 22.649-9.634 36.086-10.517 13.719-.901 16.006.855 5.088 3.906-11.839 3.309-15.154 5.495-31.567 20.817C34.3 57.39 28.343 64.737 22.763 76.87a8059.137 8059.137 0 0 1-5.386 11.695c-1.153 2.494-1.323.742-.891-9.233Zm154.626-.228c-3.946-10.532-11.44-20.507-26.628-35.444-13.415-13.194-20.794-18.52-31.78-22.937-6.345-2.551-6.871-2.996-3.947-3.338 1.855-.217 8.113.185 13.908.894 8.373 1.024 12.889 2.434 22.003 6.867 12.257 5.962 16.002 9.427 21.135 19.557 5.385 10.627 7.71 19.075 8.554 31.087.446 6.349.591 11.54.322 11.536-.269-.004-1.874-3.704-3.567-8.222Z"/></svg>

<svg
    xmlns="http://www.w3.org/2000/svg"
    viewBox="0 0 192 192"
    id="vector">
    <g id="group">
        <path
            id="path_3"
            d="M 61.295 173.015 C 45.434 168.816 35.077 162.411 28.653 152.827 C 21.516 142.18 17.186 128.002 16.358 112.57 C 15.642 99.219 16.692 98.198 20.156 108.877 C 21.255 112.263 24.367 118.63 27.073 123.028 C 32.308 131.536 56.296 156.705 64.585 162.386 C 71.389 167.05 81.051 171.798 85.848 172.835 C 93.413 174.47 91.354 175.97 81.626 175.911 C 75.686 175.874 67.918 174.768 61.295 173.015 Z M 109.474 172.043 C 121.886 167.277 130.665 161.026 145.23 146.583 C 161.133 130.813 165.723 124.731 171.108 112.29 L 174.717 103.953 L 174.761 113.886 C 174.785 119.403 173.944 126.791 172.869 130.505 C 169.64 141.651 162.819 154.462 157.603 159.174 C 147.251 168.527 129.117 174.781 112.662 174.674 L 102.789 174.61 Z M 53.361 119.713 C 51.228 118.649 48.874 116.443 48.129 114.809 C 46.373 110.954 46.359 80.979 48.112 77.131 C 50.47 71.956 55.373 70.099 66.663 70.104 C 83.08 70.111 87.376 74.384 87.394 90.719 L 87.401 97.182 L 72.652 97.182 C 57.936 97.182 57.901 97.189 57.128 100.268 C 56.702 101.965 56.714 105.273 57.154 107.62 C 57.834 111.246 58.663 112.098 62.683 113.303 C 70.115 115.529 74.756 113.368 76.809 106.723 C 77.279 105.204 78.756 104.569 81.822 104.569 C 85.817 104.569 86.17 104.864 86.17 108.204 C 86.17 117.707 80.031 121.848 66.123 121.725 C 60.664 121.676 55.745 120.901 53.361 119.713 Z M 76.1 86.296 C 76.645 80.605 73.576 77.486 67.432 77.486 C 60.798 77.486 58.098 79.25 57.171 84.191 C 55.989 90.494 56.994 91.174 66.885 90.771 L 75.706 90.412 Z M 99.711 95.951 L 99.711 70.099 L 105.251 70.099 C 109.97 70.099 110.791 70.464 110.791 72.561 C 110.791 73.916 111.07 75.024 111.411 75.024 C 111.752 75.024 114.098 73.916 116.624 72.561 C 123.528 68.861 135.229 69.123 139.491 73.072 C 143.888 77.148 144.167 79.002 143.765 101.491 L 143.413 121.188 L 132.334 121.188 L 132.035 103.338 C 131.871 93.52 131.46 84.302 131.122 82.854 C 130.324 79.426 125.324 78.21 119.592 80.049 C 110.922 82.83 110.791 83.18 110.791 103.528 L 110.791 121.803 L 99.711 121.803 Z M 16.486 79.332 C 17.151 63.954 21.254 50.416 28.582 39.421 C 32.868 32.992 35.408 30.645 42.202 26.839 C 53.493 20.515 64.851 17.205 78.288 16.322 C 92.007 15.421 94.294 17.177 83.376 20.228 C 71.537 23.537 68.222 25.723 51.809 41.045 C 34.3 57.39 28.343 64.737 22.763 76.87 C 20.584 81.61 18.16 86.872 17.377 88.565 C 16.224 91.059 16.054 89.307 16.486 79.332 Z M 171.112 79.104 C 167.166 68.572 159.672 58.597 144.484 43.66 C 131.069 30.466 123.69 25.14 112.704 20.723 C 106.359 18.172 105.833 17.727 108.757 17.385 C 110.612 17.168 116.87 17.57 122.665 18.279 C 131.038 19.303 135.554 20.713 144.668 25.146 C 156.925 31.108 160.67 34.573 165.803 44.703 C 171.188 55.33 173.513 63.778 174.357 75.79 C 174.803 82.139 174.948 87.33 174.679 87.326 C 174.41 87.322 172.805 83.622 171.112 79.104 Z"
            fill="#000000"
            stroke-width="12"/>
    </g>
</svg>
